X: 4349
T: WINE, FLOW A FOUNTAIN. (Don Giovanni.)
%R: air, march
B: James Kerr "Merry Melodies" v.4 p.37 #349
Z: 2016 John Chambers <jc:trillian.mit.edu>
M: 2/4
L: 1/8
K: Bb
|:!f!\
B2BB | dBB2 | F2FF | BFF2 |\
D2DE | F2F2 | F2GA | B2z2 H:|\
B2cd | c2A2 | G2AB | A2F2 |\
c2cc | =B2_B2 | A2_AA | G4 |\
G2GG |
G2G2 | G2A=B | (c2G2) |\
G2A=B | (c2G2) | G2A=B | c4 ||\
c2cc | A>GF2 | c2cc | AFz2 |\
c2Ad | cAz2 | c2Ad | c2c2- |\
c2=B2 | _B2A2 | GABc | "_D.C."F2z2 |]

%%sep 1 1 500
%%sep 1 1 500

